src/main/resources/extratci/icons/custom/print_dark.svg

<!-- Copyright 2000-2021 JetBrains s.r.o. Use of this source code is governed by the Apache 2.0 license that can be found in the LICENSE file. -->
<svg xmlns="http://www.w3.org/2000/svg" width="16" height="16" viewBox="0 0 16 16">
  <g fill="none" fill-rule="evenodd">
    <path fill="#3592C4" fill-rule="nonzero" d="M2.16666667,6 L13.8333333,6 C14.4776655,6 15,6.44771525 15,7 L15,11 L1,11 L1,7 C1,6.44771525 1.52233446,6 2.16666667,6 Z M13,7 L13,8 L14,8 L14,7 L13,7 Z"/>
    <path fill="#AFB1B3" fill-rule="nonzero" d="M4,9 L12,9 L12,15 L4,15 L4,9 Z M5,10 L5,14 L11,14 L11,10 L5,10 Z"/>
    <rect width="8" height="3" x="4" y="2" fill="#AFB1B3" fill-rule="nonzero"/>
  </g>
</svg>

<!--Copyright 2000-2021 JetBrains s.r.o. Use of this source code is governed by the Apache 2.0 license that can be found in the LICENSE file.--><svg xmlns="http://www.w3.org/2000/svg" width="16" height="16" viewBox="0 0 16 16"><g fill="none"><path fill="#3592C4" d="M2.167 6h11.666C14.478 6 15 6.448 15 7v4H1V7c0-.552.522-1 1.167-1ZM13 7v1h1V7h-1Z"/><path fill="#AFB1B3" d="M4 9h8v6H4V9Zm1 1v4h6v-4H5ZM4 2h8v3H4z"/></g></svg>
